common/svg/plan-production-icon.svg

<svg fill="none" height="20" viewBox="0 0 20 20" width="20" xmlns="http://www.w3.org/2000/svg"><g fill="#000"><path clip-rule="evenodd" d="m16.5644 16.2736-6.5644-11.2232-6.56438 11.2232zm-5.632-14.44278c-.4171-.71307-1.4477-.71307-1.86477 0l-8.918229 15.24758c-.421165.7201.098167 1.6255.932359 1.6255h17.83644c.8342 0 1.3536-.9054.9324-1.6255z" fill-rule="evenodd"/><path d="m10 8.63256 3.4446 5.88924h-6.88917z"/></g></svg>

<svg width="20" height="20" viewBox="0 0 20 20" fill="none" xmlns="http://www.w3.org/2000/svg">
<path fill-rule="evenodd" clip-rule="evenodd" d="M16.5644 16.2736L10 5.0504L3.43562 16.2736H16.5644ZM10.9324 1.83082C10.5153 1.11775 9.4847 1.11775 9.06763 1.83082L0.149401 17.0784C-0.271764 17.7985 0.247568 18.7039 1.08176 18.7039H18.9182C19.7524 18.7039 20.2718 17.7985 19.8506 17.0784L10.9324 1.83082Z" fill="black"/>
<path d="M10 8.63256L13.4446 14.5218H6.55543L10 8.63256Z" fill="black"/>
</svg>
